X:1
T:The Swallow-Tailed Coat  "1998.3"
M:C
L:1/8
Q:80
C:Traditional
S:Reel
K:HP
[| {g}eA{g}c{d}A{g}eA{g}c{d}A | \
{g}cd{g}ef{a}ge{g}dB | \
{g}G{d}G{g}B{d}G{g}dG{g}B{d}G |
{g}Bd{g}ef{gf}g2af | \
{g}eA{g}c{d}A{g}eA{g}c{d}A | \
{g}cd{g}ef{gf}g2{a}fg |
af{a}ge{g}dB{g}G{d}B | \
{g}A{d}c{g}B{d}G{g}A2|]
{g}cd |
{g}eagaeaga | \
ed{g}ef{a}ge{g}dB | \
{g}G{d}G{g}B{d}G{g}dG{g}B{d}G |
{g}Bd{g}ef{gf}g2af | \
{g}eA{g}c{d}A{g}Ae{g}c{d}A | \
{g}cd{g}ef{gf}g2{a}fg |
af{a}ge{g}dB{g}G{d}B | \
{g}A{d}c{g}B{d}G{g}A2|]
